X:1
T:Title
%%score 1 2 3
L:1/8
M:2/2
K:C
V:1 treble nm="Part_1"
V:2 treble-8 nm="Part_2"
V:3 bass nm="Part_3"
V:1
 z8 | z8 | z8 | z8 | E8 | F8 | E8 | D8 | G8 | G8 | G8 | A8 | c8 | c8 | c8 | d8 | c8 | c8 | c8 | %19
 B8 | A8 | B8 | c8 | B8 | A8 | G8 | G8 | A8 | c8 | B8 | A8 | G8 | A8 | A8 | A8 | c8 | G8 | G8 | %38
 F8 | A8 | A8 | D8 | G8 | G8 | G8 | E8 | G8 | A8 | A8 | G8 | A8 | c8 | G8 | A8 | G8 | F8 | E8 | %57
 D8 | E8 | E8- |[M:4/2] E16 |] %61
V:2
 z8 | z8 | E8 | F8 | E8 | D4 A4 | G4 c4- | c2 B2 B2 A2 | c4 e4- | e2 B2 c4 | B2 e3 d cB | A4 d4 | %12
 c4 A4- | A4 (3:2:1e6- | (3e2 d2 c2 c4 | c2 BA B4 | c4 f4- | f2 e2 c3 d | e4 A4 | G3 F D2 G2- | %20
 G2 F2 F2 EF | G4 d4 | c2 A4 B2 | c3 d e4- | e2 dc d4 | e4 B2 e2- | e2 dc B4 | A4 c4 | A2 F4 c2 | %29
 d3 c d2 e2 | f3 e c2 d2 | e2 dc B4 | A8 | z4 d4- | d2 c2 d3 c | A3 B c2 d2 | e4 B2 e2- | %37
 e2 d2 c3 B | d4 f4- | f2 e2 d2 c2 | d4 A4 | B3 c d3 c | B3 A B4 | G4 z4 | c4 B2 c2- | c2 B2 G4- | %46
 G2 A2 B4 | c4 d4- | d2 c2 A4 | B4 B4 | c4 A4- | A4 e4- | e2 dc B4 | A4 d4- | d4 c4 | d3 c A2 B2 | %56
 c3 B G2 A2 | G2 D2 F4 | C3 D E2 F2 | G4 E2 E2- |[M:4/2] E16 |] %61
V:3
 E,8 | F,8 | E,8 | D,4 A,2 F,2 | G,4 C,4 | z4 D,4 | E,4 C,4 | G,8 | C,6 D,2 | E,4 C,4 | G,4 C,4 | %11
 F,4 D,4 | A,8 | F,4 E,4 | C,8 | G,8 | A,4 A,4 | F,8 | C,4 F,4 | G,4 D4 | C4 A,4 | G,4 D,4 | %22
 A,6 G,2 | E,4 G,4 | F,8 | E,8 | z4 E,4 | F,6 F,2 | F,4 A,4 | G,8 | F,8 | E,8 | F,4 F,4 | D,8 | %34
 F,6 G,2 | A,4 F,4 | E,8- | E,8 | D,8 | (3:2:2F,8 E,4 | D,4 F,4 | G,4 D,4 | E,3 F, G,3 F, | %43
 E,3 D, E,4 | C,4 z4 | C,6 D,2 | E,4 G,4 | F,4 D,4 | F,8 | E,8 | A,,8- | A,,8 | C,4 G,4 | F,4 D,4 | %54
 E,8 | D,3 E, F,2 E,2 | C,3 D, E,2 A,,2 | B,,3 C, D,4 | E,3 D, C,4- | C,2 B,,2 C,3 D, | %60
[M:4/2] E,16 |] %61

